X:475
T:Homeward Bound
R:Reel
C:trad.
S:Buddy MacMaster, Gaelic Roots III, Boston 1997
Z:Added by elizabeth.scarlett@rogers.com
M:C|
L:1/8
K:D
A,|D2DE FEDF|A/A/A AF ABde|faed B2dB|AFEF DB,A,B,|
D2DE FEDF|A/A/A AF ABde|faed B2dB|AFEF D/D/D:|
g|fdfg afdf|e/e/e ed efg2|fdfg afdf|edef d/d/d dg|
fdfg afdf|e/e/e ed efg2|f/g/a ed B2dB|[1 AFEF D/D/D D:|[2 AFEF DB,A,B,||
